X: 24513
T: Lucy Farr's
R: jig
M: 6/8
K: Amajor
~E3 EFA|B2A Bce|~f3 ecB|cdc BAF|
EAF EFA|B2A Bce|~f2e cBA|1 FAE E2 F:|2 FAE E2e||
|:~f3 ~b3|a2 f fec|~e3 fec|efe ece|
fbf b3|a2 f fef|afe cBA|1 FAE E2 e:|2 FAE EAF||

